modules/hawcons-stroke/icons/icon-11-cloud-sun-lightning.svg

<?xml version="1.0" encoding="UTF-8" standalone="no"?>
<svg width="32px" height="32px" viewBox="0 0 32 32" version="1.1" xmlns="http://www.w3.org/2000/svg" xmlns:xlink="http://www.w3.org/1999/xlink" xmlns:sketch="http://www.bohemiancoding.com/sketch/ns">
    <!-- Generator: Sketch 3.0.3 (7891) - http://www.bohemiancoding.com/sketch -->
    <title>icon 11 cloud sun lightning</title>
    <desc>Created with Sketch.</desc>
    <defs></defs>
    <g id="Page-1" stroke="none" stroke-width="1" fill="none" fill-rule="evenodd" sketch:type="MSPage">
        <g id="icon-11-cloud-sun-lightning" sketch:type="MSArtboardGroup" fill="#929292">
            <path d="M17.0666911,22 L19.5999756,22 L13.5,28.1000061 L14.9786564,24 L12.4000244,24 L14.6999512,18 L18.5999756,18 L17.0666911,22 L17.0666911,22 Z M19,24 L24.9971835,24 C27.207878,24 29,22.2046438 29,20 C29,18.1225574 27.70144,16.5472159 25.9581226,16.1164746 L25.9581226,16.1164746 C25.9857342,15.9149284 26,15.7091302 26,15.5 C26,13.0147185 23.9852815,11 21.5,11 C20.2744589,11 19.1633432,11.489913 18.3518132,12.2845787 C17.3608691,10.3354059 15.336385,9 13,9 C9.68629134,9 7,11.6862913 7,15 C7,15.3764904 7.03467626,15.7448817 7.10100919,16.1021544 L7.10100919,16.1021544 C5.32460991,16.5117359 4,18.1046097 4,20 C4,22.209139 5.79793835,24 8.00281647,24 L11.375,24 L11.375,24 L14,17 L20,17 L18.5,21 L22,21 L19,24 L19,24 L19,24 Z M13.5454545,25 L7.99943992,25 C5.23249418,25 3,22.7614237 3,20 C3,17.9491311 4.23965876,16.1816085 6.01189661,15.4115388 C6.00400207,15.275367 6,15.1381509 6,15 C6,11.1340066 9.13400656,8 13,8 C13.521529,8 14.0297369,8.0570341 14.5187269,8.16520533 L14.5187269,8.16520533 C15.3968409,6.29499266 17.2971895,5 19.5,5 C22.5375663,5 25,7.46243373 25,10.5 C25,10.7437319 24.984146,10.983761 24.9534131,11.2191122 L24.9534131,11.2191122 C26.1810757,12.2107183 26.9735292,13.7196655 26.9993494,15.4145295 C28.7676457,16.1852931 30,17.9483386 30,20 C30,22.7558048 27.7616745,25 25.0005601,25 L18,25 L11,32 L13.5454545,25 L13.5454545,25 Z M23.998929,10.5991622 C23.9996418,10.5661942 24,10.533139 24,10.5 C24,8.0147185 21.9852815,6 19.5,6 C17.7507549,6 16.2346236,6.99807813 15.4900199,8.45582047 C16.7434413,8.93301046 17.8243683,9.75995689 18.6135384,10.8173973 C19.4525719,10.299097 20.441357,10 21.5,10 C22.399795,10 23.2491234,10.2160728 23.998929,10.5991622 L23.998929,10.5991622 L23.998929,10.5991622 Z M19.5,1 C19.2238576,1 19,1.2157526 19,1.49538898 L19,3.50461102 C19,3.7782068 19.2319336,4 19.5,4 C19.7761424,4 20,3.7842474 20,3.50461102 L20,1.49538898 C20,1.2217932 19.7680664,1 19.5,1 L19.5,1 Z M26.2330514,3.78892122 C26.0377893,3.59365907 25.7269379,3.58792796 25.5292051,3.78566074 L24.1084706,5.20639526 C23.9150092,5.3998567 23.9221795,5.72068999 24.1117311,5.91024156 C24.3069932,6.10550371 24.6178446,6.11123483 24.8155774,5.91350204 L26.2363119,4.49276752 C26.4297733,4.29930609 26.422603,3.97847279 26.2330514,3.78892122 L26.2330514,3.78892122 Z M29.0219727,10.5219727 C29.0219727,10.2458303 28.8062201,10.0219727 28.5265837,10.0219727 L26.5173616,10.0219727 C26.2437659,10.0219727 26.0219727,10.2539062 26.0219727,10.5219727 C26.0219727,10.798115 26.2377253,11.0219727 26.5173616,11.0219727 L28.5265837,11.0219727 C28.8001795,11.0219727 29.0219727,10.7900391 29.0219727,10.5219727 L29.0219727,10.5219727 Z M12.7669486,3.78892122 C12.5716864,3.98418337 12.5659553,4.29503474 12.7636881,4.49276752 L14.1844226,5.91350204 C14.377884,6.10696348 14.6987173,6.09979314 14.8882689,5.91024156 C15.0835311,5.71497942 15.0892622,5.40412805 14.8915294,5.20639526 L13.4707949,3.78566074 C13.2773334,3.59219931 12.9565001,3.59936965 12.7669486,3.78892122 L12.7669486,3.78892122 Z" id="cloud-sun-lightning" sketch:type="MSShapeGroup"></path>
        </g>
    </g>
</svg>

<svg width="32" height="32" xmlns="http://www.w3.org/2000/svg"><path d="M17.067 22H19.6l-6.1 6.1 1.479-4.1H12.4l2.3-6h3.9l-1.533 4zM19 24h5.997A4.004 4.004 0 0 0 29 20a4.006 4.006 0 0 0-3.042-3.884 4.5 4.5 0 0 0-7.606-3.832 6 6 0 0 0-11.25 3.818H7.1A4.006 4.006 0 0 0 4 20c0 2.21 1.798 4 4.003 4h3.372L14 17h6l-1.5 4H22l-3 3zm-5.455 1H8C5.232 25 3 22.761 3 20c0-2.05 1.24-3.818 3.012-4.588a7 7 0 0 1 8.507-7.246 5.5 5.5 0 0 1 10.434 3.053A5.49 5.49 0 0 1 27 15.415C28.768 16.185 30 17.948 30 20c0 2.756-2.238 5-5 5h-7l-7 7 2.545-7zM24 10.6l.001-.1a4.5 4.5 0 0 0-8.51-2.044 7.02 7.02 0 0 1 3.124 2.361A5.474 5.474 0 0 1 21.5 10c.9 0 1.75.216 2.499.6zM19.5 1c-.276 0-.5.216-.5.495v2.01c0 .273.232.495.5.495.276 0 .5-.216.5-.495v-2.01A.503.503 0 0 0 19.5 1zm6.733 2.789a.494.494 0 0 0-.704-.003l-1.42 1.42a.503.503 0 0 0 .003.704.494.494 0 0 0 .704.004l1.42-1.421a.503.503 0 0 0-.003-.704zm2.789 6.733c0-.276-.216-.5-.495-.5h-2.01a.503.503 0 0 0-.495.5c0 .276.216.5.495.5h2.01a.503.503 0 0 0 .495-.5zM12.767 3.789a.494.494 0 0 0-.003.704l1.42 1.42a.503.503 0 0 0 .704-.003.494.494 0 0 0 .004-.704l-1.421-1.42a.503.503 0 0 0-.704.003z" fill="#929292" fill-rule="evenodd"/></svg>
